app/assets/images/locator/map_scale.svg

<?xml version="1.0" encoding="UTF-8"?>
<svg width="34px" height="48px" viewBox="0 0 34 48" version="1.1" xmlns="http://www.w3.org/2000/svg" xmlns:xlink="http://www.w3.org/1999/xlink">
    <!-- Generator: Sketch 45.1 (43504) - http://www.bohemiancoding.com/sketch -->
    <title>map_scale</title>
    <desc>Created with Sketch.</desc>
    <defs>
        <polygon id="path-1" points="0.0144778314 0.0463290605 0.0144778314 10.6088723 15.0895198 10.6088723 15.0895198 0.0463290605 0.0144778314 0.0463290605"></polygon>
        <polygon id="path-3" points="0.0144778314 19.3037752 0.0144778314 0.165047278 23.9528482 0.165047278 23.9528482 19.3037752"></polygon>
    </defs>
    <g id="LocatorMaps" stroke="none" stroke-width="1" fill="none" fill-rule="evenodd">
        <g id="MISC" transform="translate(-4.000000, -6.000000)">
            <g id="Group-16" transform="translate(4.000000, 6.000000)">
                <path d="M17,47.3916016 C28.3333333,33.389761 34,23.2592272 34,17 C34,7.61115925 26.3888407,0 17,0 C7.61115925,0 0,7.61115925 0,17 C0,23.2592272 5.66666667,33.389761 17,47.3916016 Z" id="Oval" fill="#F5A623"></path>
                <g id="noun_710090_white" transform="translate(6.000000, 8.000000)">
                    <g id="Group-3" transform="translate(0.000000, 5.067241)">
                        <mask id="mask-2" fill="white">
                            <use xlink:href="#path-1"></use>
                        </mask>
                        <g id="Clip-2"></g>
                        <path d="M2.21317783,8.74774703 C2.21317783,8.14426276 2.71604117,7.64115811 3.31976674,7.64115811 C3.92325101,7.64115811 4.42635565,8.14426276 4.42635565,8.74774703 C4.42635565,9.3514726 3.92325101,9.85433594 3.31976674,9.85433594 C2.71604117,9.85433594 2.23827273,9.3514726 2.21317783,8.74774703 Z M1.45864151,8.72289342 C1.45864151,9.75371501 2.28846255,10.583536 3.31976674,10.583536 C4.35082963,10.583536 5.18065067,9.75371501 5.18065067,8.72289342 C5.18065067,7.69158923 4.35082963,6.86176819 3.31976674,6.86176819 C2.31379875,6.86176819 1.45864151,7.69158923 1.45864151,8.72289342 Z M10.6885003,8.74774703 C10.6885003,8.14426276 11.1913637,7.64115811 11.7950892,7.64115811 C12.3985735,7.64115811 12.9016782,8.14426276 12.9016782,8.74774703 C12.9016782,9.3514726 12.3985735,9.85433594 11.7950892,9.85433594 C11.1913637,9.85433594 10.6885003,9.3514726 10.6885003,8.74774703 Z M9.93396401,8.74774703 C9.93396401,9.77880992 10.763785,10.6088723 11.7950892,10.6088723 C12.8261521,10.6088723 13.6562145,9.75371501 13.6562145,8.72289342 C13.6562145,7.69158923 12.8261521,6.86176819 11.7950892,6.86176819 C10.763785,6.86176819 9.93396401,7.71668414 9.93396401,8.74774703 Z M0.7041052,5.45331649 L7.34339738,5.45331649 L7.34339738,0.0463290605 L0.7041052,0.0463290605 L0.7041052,5.45331649 Z M9.05371186,2.46050745 L13.2537308,2.46050745 L13.6308783,5.25207464 L9.05371186,5.25207464 L9.05371186,2.46050745 Z M0,5.70474817 L0,8.77308323 L1.23230475,8.77308323 L1.23230475,8.74774703 C1.23230475,7.56587339 2.18784162,6.61009522 3.34486165,6.61009522 C4.50164038,6.61009522 5.45741855,7.56587339 5.45741855,8.74774703 L5.45741855,8.77308323 L9.68253234,8.77308323 L9.68253234,8.74774703 C9.68253234,7.56587339 10.6380692,6.61009522 11.7950892,6.61009522 C12.951868,6.61009522 13.9076461,7.56587339 13.9076461,8.74774703 L13.9076461,8.77308323 L14.6870361,8.77308323 C14.9136141,8.77308323 15.0895198,8.59693628 15.0895198,8.37059952 L15.0895198,7.9683571 C15.0895198,7.74177904 14.9136141,7.56587339 14.6870361,7.56587339 L14.7628034,7.56587339 L14.0082671,1.9574028 C13.9829309,1.78149715 13.8321201,1.65578132 13.6562145,1.65578132 L8.60103834,1.65578132 C8.39979648,1.65578132 8.24898574,1.80659206 8.24898574,2.00783392 L8.24898574,5.70474817 L0,5.70474817 L0,5.70474817 Z" id="Fill-1" fill="#FFFFFE" mask="url(#mask-2)"></path>
                    </g>
                    <path d="M17.9231809,2.30873151 C18.1402783,2.30873151 18.3163623,2.48481553 18.3163623,2.70191289 C18.3163623,2.91901026 18.1402783,3.09509428 17.9231809,3.09509428 C17.7060836,3.09509428 17.5299996,2.91901026 17.5299996,2.70191289 C17.5299996,2.48481553 17.7060836,2.30873151 17.9231809,2.30873151" id="Fill-4" fill="#FFFFFE"></path>
                    <path d="M17.1288306,4.10012185 C17.345928,4.10012185 17.522012,4.27620586 17.522012,4.49330323 C17.522012,4.7104006 17.345928,4.88648461 17.1288306,4.88648461 C16.9117332,4.88648461 16.7356492,4.7104006 16.7356492,4.49330323 C16.7356492,4.27620586 16.9117332,4.10012185 17.1288306,4.10012185" id="Fill-5" fill="#FFFFFE"></path>
                    <path d="M21.5839006,2.30897281 C21.801149,2.30897281 21.977082,2.48517936 21.977082,2.70215419 C21.977082,2.91912902 21.801149,3.09533557 21.5839006,3.09533557 C21.3666522,3.09533557 21.1907192,2.91912902 21.1907192,2.70215419 C21.1907192,2.48517936 21.3666522,2.30897281 21.5839006,2.30897281" id="Fill-6" fill="#FFFFFE"></path>
                    <path d="M17.8394508,5.82925752 C18.0565482,5.82925752 18.2326322,6.00534153 18.2326322,6.2224389 C18.2326322,6.43953627 18.0565482,6.61562028 17.8394508,6.61562028 C17.6223534,6.61562028 17.4462694,6.43953627 17.4462694,6.2224389 C17.4462694,6.00534153 17.6223534,5.82925752 17.8394508,5.82925752" id="Fill-7" fill="#FFFFFE"></path>
                    <path d="M21.6541181,5.80174964 C21.8713665,5.80174964 22.0472995,5.97768257 22.0472995,6.19493102 C22.0472995,6.41217946 21.8713665,6.5881124 21.6541181,6.5881124 C21.4368696,6.5881124 21.2609367,6.41217946 21.2609367,6.19493102 C21.2609367,5.97768257 21.4368696,5.80174964 21.6541181,5.80174964" id="Fill-8" fill="#FFFFFE"></path>
                    <path d="M19.7102279,6.65425261 C19.9273253,6.65425261 20.1034093,6.83033662 20.1034093,7.04743399 C20.1034093,7.26453136 19.9273253,7.44061537 19.7102279,7.44061537 C19.4931306,7.44061537 19.3170465,7.26453136 19.3170465,7.04743399 C19.3170465,6.83033662 19.4931306,6.65425261 19.7102279,6.65425261" id="Fill-9" fill="#FFFFFE"></path>
                    <path d="M22.2728041,4.08636791 C22.4899014,4.08636791 22.6659855,4.26245192 22.6659855,4.47954929 C22.6659855,4.69664666 22.4899014,4.87273067 22.2728041,4.87273067 C22.0554333,4.87273067 21.8796227,4.69664666 21.8796227,4.47954929 C21.8796227,4.26245192 22.0554333,4.08636791 22.2728041,4.08636791" id="Fill-10" fill="#FFFFFE"></path>
                    <g id="Group-14">
                        <mask id="mask-4" fill="white">
                            <use xlink:href="#path-3"></use>
                        </mask>
                        <g id="Clip-12"></g>
                        <path d="M19.9275284,3.58808921 L19.9275284,1.55902114 L19.4002941,1.55902114 L19.4002941,3.58808921 C19.0325572,3.70053371 18.7649586,4.04245182 18.7649586,4.44710721 C18.7649586,4.94369683 19.1674423,5.34593924 19.6640319,5.34593924 C20.1603802,5.34593924 20.5626226,4.94369683 20.5626226,4.44710721 C20.5626226,4.04269312 20.2952654,3.700775 19.9275284,3.58808921" id="Fill-11" fill="#FFFFFE" mask="url(#mask-4)"></path>
                        <path d="M19.6642732,7.89645054 C17.7657469,7.89645054 16.2214449,6.35214853 16.2214449,4.45410483 C16.2214449,2.55581984 17.7655056,1.01151782 19.6642732,1.01151782 C21.5623169,1.01151782 23.1068602,2.55581984 23.1068602,4.45410483 C23.1066189,6.35214853 21.5623169,7.89645054 19.6642732,7.89645054 Z M13.04525,16.3997635 L11.7371779,16.3997635 L13.04525,16.3997635 Z M10.96189,16.3997635 L5.47696362,16.3997635 L10.96189,16.3997635 Z M4.72146212,16.3997635 L3.41363135,16.3997635 L4.72146212,16.3997635 Z M2.65812984,16.4000048 L0,16.4000048 L0,19.3037752 C0,19.3037752 18.3274868,19.3037752 18.3487209,19.3037752 C18.5651645,19.3037752 19.2412792,19.2685458 19.6814053,18.8508604 C20.1152576,18.4394487 20.1227379,17.7256916 20.1186358,17.5659528 L20.1186358,10.3692641 L21.2783101,10.3692641 L21.2783101,8.42633917 C22.8450528,7.78738421 23.9528482,6.24814944 23.9528482,4.45410483 C23.9528482,2.08915107 22.0287444,0.165047278 19.6642732,0.165047278 C17.2990781,0.165047278 15.3752156,2.08915107 15.3752156,4.45386353 C15.3752156,6.24790814 16.483011,7.78714291 18.049995,8.42609787 L18.049995,10.3690228 L19.2089454,10.3690228 L19.2089454,17.5864631 C19.2140126,17.7462018 19.1669597,18.0845005 19.0554804,18.1901887 C18.8672686,18.3687486 18.4536852,18.3967391 18.3253151,18.3931196 L16.3003491,18.3928783 L16.3003491,16.4000048 L13.8005102,16.4000048 L2.65812984,16.4000048 Z" id="Fill-13" fill="#FFFFFE" mask="url(#mask-4)"></path>
                    </g>
                </g>
            </g>
        </g>
    </g>
</svg>

<svg width="34" height="48" viewBox="0 0 34 48" xmlns="http://www.w3.org/2000/svg" xmlns:xlink="http://www.w3.org/1999/xlink"><title>map_scale</title><defs><path id="a" d="M.014.046V10.61H15.09V.045H.014z"/><path id="c" d="M.014 19.304V.164h23.94v19.14z"/></defs><g fill="none" fill-rule="evenodd"><path d="M17 47.392C28.333 33.39 34 23.26 34 17c0-9.39-7.61-17-17-17S0 7.61 0 17c0 6.26 5.667 16.39 17 30.392z" fill="#F5A623"/><g transform="translate(6 13.067)"><mask id="b" fill="#fff"><use xlink:href="#a"/></mask><path d="M2.213 8.748c0-.604.503-1.107 1.107-1.107.603 0 1.106.504 1.106 1.108 0 .603-.503 1.106-1.106 1.106-.604 0-1.082-.503-1.107-1.106zm-.754-.025c0 1.03.828 1.86 1.86 1.86 1.03 0 1.86-.83 1.86-1.86 0-1.03-.83-1.86-1.86-1.86-1.006 0-1.86.83-1.86 1.86zm9.23.025c0-.604.5-1.107 1.105-1.107.604 0 1.107.504 1.107 1.108 0 .603-.503 1.106-1.107 1.106S10.69 9.35 10.69 8.748zm-.756 0c0 1.03.83 1.86 1.86 1.86 1.032 0 1.862-.854 1.862-1.885 0-1.03-.83-1.86-1.86-1.86-1.032 0-1.862.854-1.862 1.885zM.704 5.453h6.64V.046H.703v5.407zm8.35-2.992h4.2l.377 2.792H9.055v-2.79zM0 5.706v3.068h1.232v-.025c0-1.182.956-2.138 2.113-2.138s2.112.956 2.112 2.138v.025h4.226v-.025c0-1.182.955-2.138 2.112-2.138s2.113.956 2.113 2.138v.025h.78c.226 0 .402-.176.402-.402V7.97c0-.226-.176-.402-.403-.402h.076l-.755-5.61c-.025-.175-.176-.3-.352-.3H8.6c-.2 0-.35.15-.35.352v3.697H0z" fill="#FFFFFE" mask="url(#b)"/></g><path d="M23.923 10.31c.217 0 .393.175.393.392 0 .217-.176.393-.393.393-.217 0-.393-.176-.393-.393 0-.217.176-.393.393-.393M23.13 12.1c.216 0 .392.176.392.393 0 .217-.176.393-.393.393-.218 0-.394-.176-.394-.393 0-.217.176-.393.393-.393M27.584 10.31c.217 0 .393.175.393.392 0 .217-.176.393-.393.393-.217 0-.393-.176-.393-.393 0-.217.177-.393.394-.393M23.84 13.83c.217 0 .393.175.393.392 0 .218-.176.394-.394.394-.218 0-.394-.176-.394-.394 0-.217.176-.393.393-.393M27.654 13.802c.217 0 .393.176.393.393 0 .217-.176.393-.393.393-.217 0-.393-.176-.393-.393 0-.217.177-.393.394-.393M25.71 14.654c.217 0 .393.176.393.393 0 .218-.176.394-.393.394-.217 0-.393-.175-.393-.393 0-.217.176-.393.393-.393M28.273 12.086c.217 0 .393.176.393.394 0 .217-.176.393-.393.393-.218 0-.393-.176-.393-.393 0-.218.175-.394.393-.394" fill="#FFFFFE"/><g transform="translate(6 8)"><mask id="d" fill="#fff"><use xlink:href="#c"/></mask><path d="M19.928 3.588v-2.03H19.4v2.03c-.367.113-.635.454-.635.86 0 .496.402.898.9.898.495 0 .898-.402.898-.9 0-.403-.268-.745-.635-.858" fill="#FFFFFE" mask="url(#d)"/><path d="M19.664 7.896c-1.898 0-3.443-1.544-3.443-3.442 0-1.898 1.546-3.442 3.444-3.442s3.443 1.544 3.443 3.442c0 1.898-1.545 3.442-3.443 3.442zm-6.62 8.504h-1.307 1.308zm-2.082 0H5.477h5.485zm-6.24 0H3.413 4.72zm-2.064 0H0v2.904h18.35c.215 0 .89-.035 1.33-.453.435-.41.443-1.124.44-1.284V10.37h1.158V8.425c1.567-.64 2.675-2.178 2.675-3.972 0-2.365-1.924-4.29-4.29-4.29-2.364 0-4.288 1.925-4.288 4.29 0 1.794 1.108 3.333 2.675 3.972v1.943h1.16v7.216c.004.16-.043.5-.155.604-.188.18-.6.207-.73.203H16.3V16.4H2.658z" fill="#FFFFFE" mask="url(#d)"/></g></g></svg>
